X: 182
T: Aşkınla Yana Yana
C: İsmet Nedim Saatçi
O: Turkey
F: http://compmusic.upf.edu/node/140
N: muhayyerkurdi--sarki--aksak--askinla_yana_yana--ismet_nedim
N: makam= muhayyerkurdi
N: form= sarki
N: usul= aksak = 9/8
M: 9/8
L: 1/16
K: C _B   
Q: 1/4=276
%%MIDI tuningsystem comma53
d4 f2e2 d4 f2e2 d2 | d4f2 e2d4f2 e2d2  | \
w:  ARANAĞME  |   | 
g4 f4 e4 d4 e2 | cd cdef efga gfef edc2  | 
w:   |   | 
c4 e2d2 c4 e2d2 c2 | c4e2 d2c4e2 d2c2  | \
w:   |   | 
a4 f4 d4 B2B2 c2 | A6 Bcde fga6  | 
w:   |   | 
d4 f2e2 d4 f2e2 d2 | d4f2 e2d4f2 e2d2  | \
w:  ARANAĞME  |   | 
g4 f4 e4 d4 e2 | cd cdef efga gfef edc2  | 
w:   |   | 
c4 e2d2 c4 e2d2 c2 | c4e2 d2c4e2 d2c2  | \
w:   |   | 
a4 f4 d4 B2B2 c2 | A6 Bcde fga6  | 
w:   |   | 
a4 a4 a4 b2g2 b2 | a18  | b4 a4 g2f2 g2f2 fe | \
w:  Aş kın la  ya na  ya  |  na    |  Kül  ol sa  da  o *  ca  | 
e12e2 f2^f2  | g2g2 g4 a4 ^f2a2 g2 | 
w:  ğım   SAZ  |  Bu  gö nül  say fa sı  | 
g8ba gfed cBAB  | B4 B4 B2A2 ccB2 BA | \
w:  nı  SAZ  |  Ar tık  ka pa ta *  *  ca  | 
A6 Bcde fga6  | 
w:  ğım   SAZ  | 
a4 a4 a4 b2g2 b2 | a18  | b4 a4 g2f2 g2f2 fe | \
w:  Aş kın la  ya na  ya  |  na    |  Kül  ol sa  da  o *  ca  | 
e12e2 f2^f2  | g2g2 g4 a4 ^f2a2 g2 | 
w:  ğım   SAZ  |  Bu  gö nül  say fa sı  | 
g8ba gfed cBAB  | B4 B4 B2A2 ccB2 BA | \
w:  nı  SAZ  |  Ar tık  ka pa ta *  *  ca  | 
A8A2 B2c2 d2e2  | 
w:  ğım   SAZ  | 
d4 f2e2 d4 f4 e2 | d4fg fedc defg fed2  | \
w:  Geç se  de  genç lik  ça  |  ğım   SAZ  | 
g4 f4 e2d2 e4 d2 | 
w:  Boş  kal sa  da  ku ca  | 
c4ef efga gfef edc2  | c2c2 d4 c4 d4 c2 | \
w:  ğım   SAZ  |  Sö zü mü  tu ta ca  | 
B8BA GABc dcde  | 
w:  ğım   SAZ  | 
f2e2 d4 c4 B2c2 B2 | A12A2 B2c2  | d4 f2e2 d4 f4 e2 | \
w:  A dı nı  an ma ya ca  |  ğım   SAZ  |  Geç se  de  genç lik  ça  | 
d4fg fedc defg fed2  | 
w:  ğım   SAZ  | 
g4 f4 e2d2 e4 d2 | c4ef efga gfef edc2  | \
w:  Boş  kal sa  da  ku ca  |  ğım   SAZ  | 
c2c2 d4 c4 d4 c2 | 
w:  Sö zü mü  tu ta ca  | 
B8BA GABc dcde  | f2e2 d4 c4 B2c2 B2 | \
w:  ğım   SAZ  |  A dı nı  an ma ya ca  | 
A12A2 B2c2  | 
w:  ğım   SAZ  | 
d4 f2e2 d4 f2e2 d2 | d4f2 e2d4f2 e2d2  | \
w:  ARANAĞME  |   | 
g4 f4 e4 d4 e2 | cd cdef efga gfef edc2  | 
w:   |   | 
c4 e2d2 c4 e2d2 c2 | c4e2 d2c4e2 d2c2  | \
w:   |   | 
a4 f4 d4 B2B2 c2 | A6 Bcde fga6  | 
w:   |   | 
d4 f2e2 d4 f2e2 d2 | d4f2 e2d4f2 e2d2  | \
w:  ARANAĞME  |   | 
g4 f4 e4 d4 e2 | cd cdef efga gfef edc2  | 
w:   |   | 
c4 e2d2 c4 e2d2 c2 | c4e2 d2c4e2 d2c2  | \
w:   |   | 
a4 f4 d4 B2B2 c2 | A6 Bcde fga6  | 
w:   |   | 
a4 a4 a4 b2g2 b2 | a18  | b4 a4 g2f2 g2f2 fe | \
w:  Aş kın la  ya na  ya  |  na    |  Kül  ol sa  da  o *  ca  | 
e12e2 f2^f2  | g2g2 g4 a4 ^f2a2 g2 | 
w:  ğım   SAZ  |  Bu  gö nül  say fa sı  | 
g8ba gfed cBAB  | B4 B4 B2A2 ccB2 BA | \
w:  nı  SAZ  |  Ar tık  ka pa ta *  *  ca  | 
A6 Bcde fga6  | 
w:  ğım   SAZ  | 
a4 a4 a4 b2g2 b2 | a18  | b4 a4 g2f2 g2f2 fe | \
w:  Aş kın la  ya na  ya  |  na    |  Kül  ol sa  da  o *  ca  | 
e12e2 f2^f2  | g2g2 g4 a4 ^f2a2 g2 | 
w:  ğım   SAZ  |  Bu  gö nül  say fa sı  | 
g8ba gfed cBAB  | B4 B4 B2A2 ccB2 BA | \
w:  nı  SAZ  |  Ar tık  ka pa ta *  *  ca  | 
A8A2 B2c2 d2e2  | 
w:  ğım   SAZ  | 
d4 f2e2 d4 f4 e2 | d4fg fedc defg fed2  | \
w:  Geç se  de  genç lik  ça  |  ğım   SAZ  | 
g4 f4 e2d2 e4 d2 | 
w:  Boş  kal sa  da  ku ca  | 
c4ef efga gfef edc2  | c2c2 d4 c4 d4 c2 | \
w:  ğım   SAZ  |  Sö zü mü  tu ta ca  | 
B8BA GABc dcde  | 
w:  ğım   SAZ  | 
f2e2 d4 c4 B2c2 B2 | A12|
w:  A dı nı  an ma ya ca  |  ğım    | 


